X: 1
T: Irish Rabbit
P: piffero primo a0804
O: Dave Gregory
%R: jig
F: http://ancients.sudburymuster.org/mus/sng/pdf/irishrabbitC0.pdf
Z: 2020 John Chambers <jc:trillian.mit.edu>
M: 6/8
L: 1/16
K: Edor
dc |\
B4 (3EFE B4 (3EFE | F2D2D2 D2F2A2 | B4 (3EFE B4 (3EFE | A2B2c2 d2c2d2 |\
B4 (3EFE B4 (3EFE | F2D2D2 D2F2A2 | A2F2A2 d4 F2 | TE4E2 E2E2 :|
|: e2 |\
e2B2B2 e2B2B2 | A2B2c2 d2c2d2 | e2B2B2 e2B2B2 | A2B2c2 d4e2 |\
e2B2B2 e2B2B2 | A2B2c2 d2c2d2 | A2F2A2 d4 F2 | TF4E2 E2E2 :|
